public/icons/02n.svg

<svg width="240" height="240" viewBox="0 0 240 240" fill="none" xmlns="http://www.w3.org/2000/svg">
<path d="M194.906 59.6426C194.913 59.4293 194.917 59.2151 194.917 59C194.917 48.5066 186.496 40 176.108 40C167.868 40 160.866 45.353 158.323 52.8044C156.496 51.8416 154.419 51.2973 152.217 51.2973C144.917 51.2973 139 57.2749 139 64.6486C139 72.0224 144.917 78 152.217 78L176.134 78H190.342C195.676 78 200 73.6317 200 68.2432C200 64.5226 197.938 61.2883 194.906 59.6426Z" fill="white"/>
<path d="M181.381 174.958C183.864 172.398 181.465 168.334 177.907 168.609C175.749 168.776 173.568 168.861 171.366 168.861C125.154 168.861 87.6917 131.428 87.6917 85.252C87.6917 71.0498 91.2356 57.6746 97.488 45.9612C99.1698 42.8104 96.398 38.9833 93.0558 40.248C61.9024 52.036 39.75 82.1641 39.75 117.47C39.75 163.05 76.6703 200 122.214 200C145.424 200 166.395 190.403 181.381 174.958Z" fill="#303030" fill-opacity="0.7"/>
<path d="M93.3195 162.599C93.3287 162.321 93.3334 162.042 93.3334 161.762C93.3334 148.086 82.2897 137 68.6667 137C57.86 137 48.6764 143.976 45.3412 153.687C42.9459 152.433 40.2222 151.723 37.3333 151.723C27.7604 151.723 20 159.514 20 169.124C20 178.733 27.7604 186.524 37.3333 186.524L68.6999 186.524H87.3333C94.3289 186.524 100 180.831 100 173.808C100 168.959 97.2962 164.744 93.3195 162.599Z" fill="white"/>
</svg>

<svg xmlns="http://www.w3.org/2000/svg" width="240" height="240" fill="none" xmlns:v="https://vecta.io/nano"><path d="M194.906 59.643l.011-.643c0-10.493-8.421-19-18.809-19-8.24 0-15.242 5.353-17.785 12.804-1.827-.963-3.904-1.507-6.106-1.507-7.3 0-13.217 5.978-13.217 13.351S144.917 78 152.217 78h23.917 14.208c5.334 0 9.658-4.368 9.658-9.757a9.77 9.77 0 0 0-5.094-8.601z" fill="#fff"/><path d="M181.381 174.958c2.483-2.56.084-6.624-3.474-6.349l-6.541.252c-46.212 0-83.674-37.433-83.674-83.609 0-14.202 3.544-27.577 9.796-39.291 1.682-3.151-1.09-6.978-4.432-5.713C61.902 52.036 39.75 82.164 39.75 117.47c0 45.58 36.92 82.53 82.464 82.53 23.21 0 44.181-9.597 59.167-25.042z" fill="#303030" fill-opacity=".7"/><path d="M93.32 162.599l.014-.837C93.333 148.086 82.29 137 68.667 137c-10.807 0-19.99 6.976-23.326 16.687-2.395-1.254-5.119-1.964-8.008-1.964-9.573 0-17.333 7.791-17.333 17.401s7.76 17.4 17.333 17.4H68.7h18.633c6.996 0 12.667-5.693 12.667-12.716a12.72 12.72 0 0 0-6.68-11.209z" fill="#fff"/></svg>
